src/16/actions/mail-send.svg

<svg xmlns="http://www.w3.org/2000/svg" viewBox="0 0 16 16">
  <defs id="defs3051">
    <style type="text/css" id="current-color-scheme">
      .ColorScheme-Text {
        color:#5d656b;
      }
      </style>
  </defs>
 <path style="fill:currentColor;fill-opacity:1;stroke:none" 
     d="M 5 2 L 5 3 L 13.292969 3 L 8 8.2929688 L 5 5.2929688 L 5 6.7070312 L 5.9335938 7.640625 L 5 8.7304688 L 5 10.265625 L 6.6425781 8.3496094 L 8 9.7070312 L 9.3574219 8.3496094 L 13.341797 13 L 5 13 L 5 14 L 15 14 L 15 2 L 5 2 z M 14 3.7070312 L 14 12.232422 L 10.066406 7.640625 L 14 3.7070312 z M 1 7 L 1 8 L 4 8 L 4 7 L 1 7 z M 2 9 L 2 10 L 4 10 L 4 9 L 2 9 z "
     class="ColorScheme-Text"
     />
</svg>

<svg xmlns="http://www.w3.org/2000/svg" viewBox="0 0 16 16"><path d="M5 2v1h8.293L8 8.293l-3-3v1.414l.934.934L5 8.73v1.535L6.643 8.35 8 9.707 9.357 8.35 13.342 13H5v1h10V2H5zm9 1.707v8.525l-3.934-4.591L14 3.707zM1 7v1h3V7H1zm1 2v1h2V9H2z" fill="currentColor" color="#5d656b"/></svg>
